polaris-icons/icons/new-icons/FirstOrderMajor.svg

<svg width="20" height="20" viewBox="0 0 20 20" fill="none" xmlns="http://www.w3.org/2000/svg">
<path d="M5.71967 4.28033C5.42678 3.98744 5.42678 3.51256 5.71967 3.21967C6.01256 2.92678 6.48744 2.92678 6.78033 3.21967L7.28033 3.71967C7.57322 4.01256 7.57322 4.48744 7.28033 4.78033C6.98744 5.07322 6.51256 5.07322 6.21967 4.78033L5.71967 4.28033Z" fill="#4A4A4A"/>
<path d="M4.01283 7.46151C3.61987 7.33053 3.4075 6.90579 3.53849 6.51283C3.66947 6.11987 4.09421 5.9075 4.48717 6.03849L5.98717 6.53849C6.38013 6.66947 6.5925 7.09421 6.46151 7.48717C6.33053 7.88013 5.90579 8.0925 5.51283 7.96151L4.01283 7.46151Z" fill="#4A4A4A"/>
<path d="M14.2803 3.21967C14.5732 3.51256 14.5732 3.98744 14.2803 4.28033L13.7803 4.78033C13.4874 5.07322 13.0126 5.07322 12.7197 4.78033C12.4268 4.48744 12.4268 4.01256 12.7197 3.71967L13.2197 3.21967C13.5126 2.92678 13.9874 2.92678 14.2803 3.21967Z" fill="#4A4A4A"/>
<path d="M16.4615 6.51283C16.5925 6.90579 16.3801 7.33053 15.9872 7.46151L14.4872 7.96151C14.0942 8.0925 13.6695 7.88013 13.5385 7.48717C13.4075 7.09421 13.6199 6.66947 14.0128 6.53849L15.5128 6.03849C15.9058 5.9075 16.3305 6.11987 16.4615 6.51283Z" fill="#4A4A4A"/>
<path d="M9.75149 5.68654L9.25755 9.14407C9.19897 9.55412 9.4839 9.93402 9.89395 9.9926C10.304 10.0512 10.6839 9.76626 10.7425 9.35621L11.4583 4.3452C11.5654 3.59554 10.7127 3.09063 10.1069 3.54499L8.30001 4.90014C7.96864 5.14867 7.90149 5.61877 8.15001 5.95014C8.39854 6.28151 8.86864 6.34867 9.20001 6.10014L9.75149 5.68654Z" fill="#4A4A4A"/>
<path fill-rule="evenodd" clip-rule="evenodd" d="M5.15635 10L5.2882 9.11001C5.3489 8.70027 5.06595 8.3189 4.65621 8.2582C4.24647 8.1975 3.8651 8.48045 3.80439 8.89019L3.59447 10.3072C3.53157 10.7317 3.5 11.1603 3.5 11.5895V13.2501C3.5 15.045 4.95507 16.5001 6.75 16.5001H13.25C15.0449 16.5001 16.5 15.045 16.5 13.2501V11.5895C16.5 11.1603 16.4684 10.7317 16.4055 10.3072L16.1956 8.89019C16.1349 8.48045 15.7535 8.1975 15.3438 8.2582C14.9341 8.3189 14.6511 8.70027 14.7118 9.11001L14.8437 10H12.3604C11.8223 10 11.3447 10.3443 11.1745 10.8547L11.0164 11.3291C10.9824 11.4311 10.8868 11.5 10.7792 11.5H9.22076C9.11315 11.5 9.01762 11.4311 8.98359 11.3291L8.82547 10.8547C8.65533 10.3443 8.17766 10 7.63962 10H5.15635ZM5.00055 11.5C5.00018 11.5298 5 11.5596 5 11.5895V13.2501C5 14.2166 5.7835 15.0001 6.75 15.0001H13.25C14.2165 15.0001 15 14.2166 15 13.2501V11.5895C15 11.5596 14.9998 11.5298 14.9994 11.5H12.5406L12.4394 11.8034C12.2012 12.518 11.5325 13 10.7792 13H9.22076C8.46751 13 7.79876 12.518 7.56056 11.8034L7.45943 11.5H5.00055Z" fill="#4A4A4A"/>
</svg>

<svg viewBox="0 0 20 20" xmlns="http://www.w3.org/2000/svg"><path d="M5.72 4.28a.75.75 0 0 1 1.06-1.06l.5.5a.75.75 0 0 1-1.06 1.06l-.5-.5Z" fill="#5C5F62"/><path d="M4.013 7.462a.75.75 0 1 1 .474-1.424l1.5.5a.75.75 0 1 1-.474 1.424l-1.5-.5Z" fill="#5C5F62"/><path d="M14.28 3.22a.75.75 0 0 1 0 1.06l-.5.5a.75.75 0 1 1-1.06-1.06l.5-.5a.75.75 0 0 1 1.06 0Z" fill="#5C5F62"/><path d="M16.462 6.513a.75.75 0 0 1-.475.949l-1.5.5a.75.75 0 0 1-.474-1.424l1.5-.5a.75.75 0 0 1 .949.475Z" fill="#5C5F62"/><path d="m9.751 5.687-.493 3.457a.75.75 0 0 0 1.485.212l.715-5.01c.107-.75-.745-1.255-1.351-.801l-1.807 1.355a.75.75 0 0 0 .9 1.2l.551-.413Z" fill="#5C5F62"/><path fill-rule="evenodd" d="m5.156 10 .132-.89a.75.75 0 1 0-1.484-.22l-.21 1.417a8.749 8.749 0 0 0-.094 1.282v1.661a3.25 3.25 0 0 0 3.25 3.25h6.5a3.25 3.25 0 0 0 3.25-3.25v-1.66c0-.43-.032-.858-.095-1.283l-.21-1.417a.75.75 0 0 0-1.483.22l.132.89h-2.484a1.25 1.25 0 0 0-1.185.855l-.159.474a.25.25 0 0 1-.237.171h-1.558a.25.25 0 0 1-.237-.17l-.159-.475a1.25 1.25 0 0 0-1.185-.855h-2.484Zm-.155 1.5-.001.09v1.66c0 .967.784 1.75 1.75 1.75h6.5a1.75 1.75 0 0 0 1.75-1.75v-1.75h-2.46l-.1.303a1.75 1.75 0 0 1-1.66 1.197h-1.56a1.75 1.75 0 0 1-1.66-1.197l-.1-.303h-2.46Z" fill="#5C5F62"/></svg>
